X:1101
T:Irish Air.
M:3/4
L:1/8
Q:1/4=80 "Very Slow"
N:bar 12 is |e/dz/ c/B A/Gz/| in the book
Z:Jack Campin * www.campin.me.uk * 2009
K:G
G3     ~AB2|c2 ~e2     d2|{^cde}d2    g2 c2 |{B}TA>G TA>B  A2 |\
G3     ~AB2|c2  e2     d2|{^cde}d2    g2 G>F|    E>~G F>~A G2:|
ga {ga}bagf|e2 Tf2 {ef}g2|      c'>d' c'bc'a|    b>c'`ba```bg |e/dz/ c/Bz/ A/Gz/|E>~G F>~A G2:|
<end>
<start>
